themes/asg/static/images/sponsors/open-suse.svg

<svg width="65" height="42" viewBox="0 0 65 42" fill="none" xmlns="http://www.w3.org/2000/svg">
<path d="M64.3091 30.5425C64.3091 30.5857 64.2659 30.6289 64.2227 30.6289H64.1796C64.1364 30.6289 64.0932 30.5857 64.0932 30.5425V29.7648H63.6613V30.5425C63.6613 30.5857 63.6182 30.6289 63.575 30.6289H63.5318C63.4886 30.6289 63.4454 30.5857 63.4454 30.5425V29.7648H63.1C63.0568 29.7648 63.0135 29.7216 63.0135 29.6784V29.6352C63.0135 29.592 63.0568 29.5488 63.1 29.5488H64.2659C64.3091 29.5488 64.3523 29.5488 64.3523 29.592L64.5682 29.9377L64.7841 29.592C64.7841 29.5488 64.8273 29.5488 64.8705 29.5488H65V30.5425C65 30.5857 64.9569 30.6289 64.9137 30.6289H64.8705C64.8273 30.6289 64.7841 30.5857 64.7841 30.5425V29.8944L64.6546 30.1105C64.6546 30.1105 64.6114 30.1537 64.5682 30.1537C64.525 30.1537 64.525 30.1537 64.4818 30.1105L64.3523 29.8944L64.3091 30.5425Z" fill="white"/>
<path d="M62.7537 37.8435V38.0595C62.7537 38.5346 62.4082 38.8802 61.9332 38.8802H55.585C55.11 38.8802 54.7645 38.5346 54.7645 38.0595V30.1117C54.7645 29.6366 55.11 29.291 55.585 29.291H61.6309C62.1059 29.291 62.4946 29.6366 62.4946 30.1117V30.3277C62.4946 30.8028 62.1491 31.1484 61.6309 31.1484C61.6309 31.1484 56.9238 31.1484 56.7078 31.1484C56.7078 31.3643 56.7078 33.0057 56.7078 33.2217C56.9238 33.2217 60.5081 33.2217 60.5081 33.2217C60.9832 33.2217 61.3718 33.5673 61.3718 34.0424V34.2584C61.3718 34.7335 61.0263 35.0791 60.5081 35.0791C60.5081 35.0791 56.9238 35.0791 56.7078 35.0791C56.7078 35.2951 56.7078 36.8933 56.7078 37.1092C56.9238 37.1092 61.89 37.1092 61.89 37.1092C62.4082 37.0228 62.7537 37.3684 62.7537 37.8435Z" fill="white"/>
<path d="M53.1234 35.1647V36.4606C53.1234 37.9292 52.2597 38.8795 50.8778 38.8795H45.6956C45.2205 38.8795 44.8751 38.5339 44.8751 38.0588V37.8428C44.8751 37.3676 45.2205 37.0221 45.6956 37.0221H50.6187C51.1369 37.0221 51.1801 36.2878 51.1801 36.2014V35.4239C51.1801 35.1647 51.0937 34.8624 50.6187 34.8624H46.9911C45.9547 34.8624 44.8751 34.0417 44.8751 32.6594V31.4932C44.8751 30.5861 45.7388 29.2471 47.3366 29.2471H51.5687C52.0437 29.2471 52.4324 29.5926 52.4324 30.0678V30.2837C52.4324 30.7589 52.0869 31.1044 51.6119 31.1044H47.6821C47.1639 31.1044 46.8616 31.3636 46.8616 31.7955V32.4867C46.8616 32.789 47.1207 33.1778 47.6389 33.1778H51.1801C52.1301 33.1778 53.1234 33.7825 53.1234 35.1647Z" fill="white"/>
<path d="M42.3255 29.29C42.8006 29.29 43.146 29.6788 43.146 30.1107V36.3739C43.146 37.8426 41.98 38.8792 40.4254 38.8792H37.4888C35.891 38.8792 34.7682 37.8426 34.7682 36.3739V30.1107C34.7682 29.6356 35.1568 29.29 35.5887 29.29H35.8478C36.3228 29.29 36.7115 29.6788 36.7115 30.1107V36.158C36.7115 36.6331 37.1002 37.0219 37.5752 37.0219H40.2958C40.7709 37.0219 41.1595 36.6331 41.1595 36.158V30.1107C41.1595 29.6356 41.5482 29.29 41.98 29.29H42.3255Z" fill="white"/>
<path d="M33.128 35.1647V36.4606C33.128 37.9292 32.2643 38.8795 30.8824 38.8795H25.7002C25.2252 38.8795 24.8365 38.5339 24.8365 38.0588V37.8428C24.8365 37.3676 25.182 37.0221 25.7002 37.0221H30.6233C31.1415 37.0221 31.1847 36.2878 31.1847 36.2014V35.4239C31.1847 35.1647 31.0983 34.8624 30.6233 34.8624H27.039C26.0025 34.8624 24.9229 34.0417 24.9229 32.6594V31.4932C24.9229 30.5861 25.7866 29.2471 27.3844 29.2471H31.6166C32.0916 29.2471 32.4803 29.5926 32.4803 30.0678V30.2837C32.4803 30.7589 32.1348 31.1044 31.6166 31.1044H27.6867C27.1685 31.1044 26.8662 31.3636 26.8662 31.7955V32.4867C26.8662 32.789 27.1253 33.1778 27.6436 33.1778H31.1847C32.1348 33.1778 33.128 33.7825 33.128 35.1647Z" fill="white"/>
<path fill-rule="evenodd" clip-rule="evenodd" d="M62.7956 13.308L63.0547 13.2648C63.1202 13.2975 63.1113 13.3798 63.1031 13.4554C63.1005 13.4796 63.098 13.503 63.098 13.524C63.0548 13.7832 62.9252 14.2151 62.8388 14.4311L62.7525 14.6039C62.6661 14.863 62.5797 15.1222 62.3638 15.2518C61.8888 15.6837 61.0682 16.0725 59.8159 16.5908C57.9157 17.4115 54.8065 17.973 51.9131 17.9298C50.8767 17.8867 49.8834 17.8003 48.9765 17.7139C46.2991 17.4115 44.3558 17.1955 43.9239 19.6144C43.4057 22.6812 46.2991 26.396 46.3423 26.4392V26.5256L46.2559 26.5688C46.2559 26.5688 41.6783 24.4522 41.5488 24.409L41.4192 24.3226L41.2896 24.1931C40.9441 23.8475 40.2532 23.1132 38.8281 21.4718C36.1074 18.3186 32.8686 17.8866 30.4071 18.4914C29.8025 18.621 29.0252 19.0961 28.5501 19.5712C27.2546 20.8239 27.3841 23.4155 27.4705 24.3226C27.5569 25.3593 27.6001 25.4457 27.6433 25.5321V25.6185H27.5569L27.5137 25.5753L23.7566 23.7179L23.6271 23.1132C23.5407 22.7244 23.4112 22.2493 23.1952 21.6878C21.8565 18.1458 18.8336 15.4678 15.4651 14.863C13.2195 14.4743 9.11699 14.4311 6.91457 18.5346C6.00769 20.2623 6.05087 22.4653 7.04412 24.3658C8.08055 26.3096 9.89431 27.519 12.0104 27.7782C14.1264 27.9942 15.7674 27.519 16.6311 26.3528C17.538 25.1865 17.7108 23.5883 17.063 22.2493C16.372 20.8671 15.3356 20.0896 13.8673 20.0032C12.7445 19.9168 11.924 20.3487 11.6649 20.8239C11.5785 20.9535 11.4058 21.2558 11.4058 21.6446C11.4058 22.6812 12.3558 22.9836 12.5718 22.9836C12.6149 22.9836 12.9172 22.9836 13.3059 22.8972L13.4787 22.854L13.6082 22.8108H13.6946C14.3855 22.6812 15.0765 23.1132 15.2492 23.7611C15.2924 23.8907 15.2924 24.0202 15.2924 24.1498V24.1499C15.2924 24.5818 15.0765 25.0137 14.6878 25.2729L14.6446 25.3161L14.6014 25.3593C14.3855 25.4889 14.2128 25.5753 14.0401 25.6185C13.4787 25.7912 13.0036 25.8776 12.5286 25.8776C10.8444 25.8776 8.55559 24.4522 8.51241 21.7742C8.51241 20.2623 9.24654 18.8801 10.5853 17.973C12.1399 16.9364 14.8174 16.5908 17.2789 18.1458C20.345 20.0032 21.1223 23.6747 20.345 26.1368C19.179 29.7651 15.9402 31.6657 11.6649 31.277C8.64196 31.0178 5.79176 29.4196 4.10756 27.0007C3.37342 25.9208 2.81201 24.7546 2.50972 23.5451C1.81876 20.8239 2.50972 17.9298 3.02794 16.634C4.66896 12.5737 7.82144 9.07496 12.3558 6.22412L12.6581 6.05135C22.2975 0.111474 29.1496 0.347912 34.1544 0.520611L34.2073 0.522437C40.1237 0.73841 46.4286 2.76855 47.2923 3.07091C47.2923 2.85494 47.3355 1.12716 47.3355 1.12716L47.3787 1.08397H47.465C47.8537 1.12717 56.3611 2.37981 59.9454 4.49634C60.3038 4.71141 60.5135 4.92648 60.7472 5.16623L60.7473 5.16636C60.7952 5.21547 60.8441 5.26563 60.8955 5.31703C61.8887 6.3537 63.1843 10.5868 63.3139 11.4938L63.2707 11.5802C63.2503 11.5802 63.2107 11.6091 63.1564 11.6486C63.0957 11.6929 63.0165 11.7506 62.9252 11.7962C62.1047 12.4009 60.1182 13.74 57.6135 13.524C55.3679 13.308 52.4313 12.0554 48.8902 9.67968C49.0215 9.97537 49.4777 11.0457 49.7456 11.6743L49.7462 11.6757C49.8302 11.8728 49.8956 12.0264 49.9266 12.0986L49.9698 12.1418L50.0203 12.1671C50.7479 12.5323 55.4753 14.9051 57.8294 14.863C59.8591 14.7766 61.9751 13.8264 62.7956 13.308ZM60.4424 8.95302C60.3038 9.69641 59.9551 10.3668 59.3963 10.8823C59.3794 10.8988 59.3623 10.9152 59.345 10.9315C59.3281 10.9473 59.3111 10.9629 59.294 10.9784C58.6091 11.6388 57.7207 11.968 56.7498 11.9258C54.7633 11.8394 53.1654 10.1548 53.2518 8.16788C53.295 7.1744 53.7268 6.26732 54.4178 5.6194C55.1045 4.93253 56.0472 4.58698 56.9914 4.62517L57.013 4.62511L57.0572 4.6273C58.3954 4.67492 59.5513 5.4867 60.125 6.62261C60.3959 7.15122 60.5384 7.75188 60.511 8.38304C60.5023 8.57528 60.4794 8.76575 60.4424 8.95302Z" fill="white"/>
<path d="M57.0553 5.66335C58.4804 5.70656 59.6031 6.91624 59.56 8.34193C59.56 9.03318 59.2577 9.68123 58.7395 10.1565C58.2213 10.6317 57.5735 10.8909 56.8825 10.8477C55.4574 10.8045 54.3346 9.59482 54.3778 8.16913C54.3778 7.47788 54.6801 6.82983 55.1983 6.3546C55.7165 5.87937 56.3643 5.62015 57.0553 5.66335ZM58.6531 7.69389C58.6531 7.26186 58.1349 6.91625 57.4871 6.91625C56.8393 6.91625 56.3211 7.26186 56.3211 7.69389C56.3211 8.12592 56.8393 8.47154 57.4871 8.47154C58.1349 8.47154 58.6531 8.12592 58.6531 7.69389Z" fill="white"/>
<path d="M20.1304 33.3934C20.4759 33.2206 20.9077 33.0479 21.4691 33.0479H21.6419C22.6351 33.0479 23.2397 33.6094 23.2397 34.5165V38.4472C23.2397 38.6631 23.067 38.8791 22.8079 38.8791H22.6351C22.4192 38.8791 22.2033 38.7063 22.2033 38.4472V34.6892C22.2033 34.3437 21.901 34.0413 21.5555 34.0413H20.1304C19.7849 34.0413 19.4826 34.3437 19.4826 34.6892V38.4472C19.4826 38.6631 19.3099 38.8791 19.0508 38.8791H18.9212C18.7053 38.8791 18.4894 38.7063 18.4894 38.4472V33.4366C18.4894 33.2206 18.6189 33.091 18.8349 33.091H19.0076C19.1803 33.091 19.2667 33.1774 19.3531 33.307L19.4826 33.523C19.5258 33.6094 19.569 33.6094 19.6122 33.6094C19.7417 33.5662 19.9145 33.4798 20.1304 33.3934Z" fill="white"/>
<path d="M17.3217 34.4293V35.5956C17.3217 36.0707 17.0194 36.3731 16.5444 36.3731C16.5444 36.3731 13.6942 36.3731 13.5646 36.3731C13.5646 36.5027 13.5646 37.237 13.5646 37.237C13.5646 37.6689 13.8237 37.8849 14.2556 37.8849H15.8966C16.1557 37.8849 16.3285 38.0577 16.3285 38.2736V38.4032C16.3285 38.6192 16.1557 38.792 15.8966 38.792H13.9101C13.176 38.792 12.5282 38.1441 12.5282 37.3666V34.3861C12.5282 33.6086 13.176 33.0039 13.9533 33.0039H15.8102C16.6739 33.0903 17.3217 33.695 17.3217 34.4293ZM16.2853 35.5092C16.2853 35.3796 16.2853 34.6021 16.2853 34.6021C16.2853 34.2997 16.0261 34.0406 15.7239 34.0406H14.1692C13.8669 34.0406 13.6078 34.2997 13.6078 34.6021C13.6078 34.6021 13.6078 35.4228 13.6078 35.5092C13.6942 35.5092 16.1557 35.5092 16.2853 35.5092Z" fill="white"/>
<path d="M7.39162 37.281C7.39162 37.5401 7.52117 37.7561 7.73709 37.8425L7.478 38.3608C7.43481 38.3608 7.39162 38.4472 7.39162 38.5336V41.0821C7.39162 41.298 7.21888 41.514 6.95977 41.514H6.83022C6.57112 41.514 6.39838 41.3412 6.39838 41.0821V33.4798C6.39838 33.2639 6.57111 33.1343 6.74385 33.1343H6.9166C7.08934 33.1343 7.2189 33.2639 7.2189 33.3071L7.34845 33.5662C7.39163 33.6094 7.43481 33.6526 7.478 33.6526L7.69392 34.1709C7.478 34.2573 7.34845 34.4733 7.34845 34.7325V37.281H7.39162Z" fill="white"/>
<path d="M9.50778 33.0479C10.501 33.0479 11.1056 33.6094 11.1056 34.5165V37.4105C11.1056 38.3176 10.501 38.8791 9.50778 38.8791H9.33503C8.77363 38.8791 8.34179 38.7063 7.99631 38.5335C7.78039 38.4472 7.60764 38.3608 7.47809 38.3608L7.73719 37.8424C7.82356 37.8856 7.95312 37.9288 8.03949 37.9288H9.46458C9.81006 37.9288 10.1123 37.6265 10.1123 37.2809V34.646C10.1123 34.3005 9.81006 33.9981 9.46458 33.9981H8.03949C7.90993 33.9981 7.82356 34.0413 7.73719 34.0845L7.52126 33.5662C7.65082 33.5662 7.82356 33.4798 8.03949 33.3934C8.38496 33.2206 8.81683 33.0479 9.37823 33.0479H9.50778Z" fill="white"/>
<path d="M4.92929 34.4306V37.4542C4.92929 38.2317 4.32473 38.8364 3.5474 38.8364H1.60409C0.82676 38.8364 0.222168 38.1885 0.222168 37.4542V34.4306C0.222168 33.6531 0.869934 33.0483 1.64726 33.0483H3.5042C4.28153 33.0483 4.92929 33.6962 4.92929 34.4306ZM3.93605 37.3246V34.6033C3.93605 34.301 3.67695 33.9986 3.33148 33.9986H1.82001C1.51772 33.9986 1.21541 34.2578 1.21541 34.6033V37.3246C1.21541 37.6702 1.47452 37.9293 1.77681 37.9293H3.28828C3.67694 37.9293 3.93605 37.6702 3.93605 37.3246Z" fill="white"/>
</svg>

<svg width="65" height="42" fill="none" xmlns="http://www.w3.org/2000/svg"><path d="M64.31 30.543a.093.093 0 0 1-.087.086h-.043a.093.093 0 0 1-.087-.087v-.777h-.432v.777a.093.093 0 0 1-.086.087h-.043a.093.093 0 0 1-.087-.087v-.777H63.1c-.043 0-.087-.043-.087-.087v-.043c0-.043.044-.086.087-.086h1.166c.043 0 .086 0 .086.043l.216.346.216-.346c0-.043.043-.043.087-.043H65v.994a.093.093 0 0 1-.086.086h-.043a.093.093 0 0 1-.087-.087v-.648l-.13.216s-.043.044-.086.044-.043 0-.086-.044l-.13-.216-.043.649zm-1.556 7.3v.216a.794.794 0 0 1-.82.821h-6.349a.794.794 0 0 1-.82-.82v-7.948c0-.475.345-.821.82-.821h6.046c.475 0 .864.346.864.82v.217c0 .475-.346.82-.864.82h-4.923v2.074h3.8c.475 0 .864.345.864.82v.216c0 .475-.346.821-.864.821h-3.8v2.03h5.182c.518-.086.864.26.864.734zm-9.631-2.678v1.296c0 1.468-.863 2.419-2.245 2.419h-5.182a.794.794 0 0 1-.82-.821v-.216c0-.475.345-.82.82-.82h4.923c.518 0 .561-.735.561-.822v-.777c0-.26-.086-.562-.561-.562H46.99c-1.036 0-2.116-.82-2.116-2.203v-1.166c0-.907.864-2.246 2.462-2.246h4.232c.475 0 .863.346.863.82v.217c0 .475-.345.82-.82.82h-3.93c-.518 0-.82.26-.82.692v.69c0 .303.259.692.777.692h3.541c.95 0 1.943.605 1.943 1.987zM42.325 29.29a.82.82 0 0 1 .821.82v6.264c0 1.469-1.166 2.505-2.72 2.505h-2.937c-1.598 0-2.72-1.036-2.72-2.505V30.11a.82.82 0 0 1 .82-.821h.259c.475 0 .864.389.864.82v6.048c0 .475.388.864.863.864h2.72a.866.866 0 0 0 .864-.864V30.11a.82.82 0 0 1 .821-.821h.346zm-9.197 5.875v1.296c0 1.468-.864 2.419-2.246 2.419H25.7c-.475 0-.863-.346-.863-.821v-.216c0-.475.345-.82.863-.82h4.923c.518 0 .562-.735.562-.822v-.777c0-.26-.087-.562-.562-.562H27.04c-1.037 0-2.116-.82-2.116-2.203v-1.166c0-.907.864-2.246 2.461-2.246h4.233c.475 0 .863.346.863.82v.217c0 .475-.345.82-.863.82h-3.93c-.518 0-.82.26-.82.692v.69c0 .303.258.692.777.692h3.54c.95 0 1.944.605 1.944 1.987z" fill="#fff"/><path fill-rule="evenodd" clip-rule="evenodd" d="M62.796 13.308l.259-.043c.065.032.056.115.048.19a.67.67 0 0 0-.005.069 5.46 5.46 0 0 1-.26.907l-.086.173c-.086.259-.172.518-.388.648-.475.432-1.296.82-2.548 1.339-1.9.82-5.01 1.382-7.903 1.339a54.816 54.816 0 0 1-2.936-.216c-2.678-.302-4.621-.518-5.053 1.9-.518 3.067 2.375 6.782 2.418 6.825v.087l-.086.043s-4.578-2.117-4.707-2.16l-.13-.086-.13-.13c-.345-.346-1.036-1.08-2.46-2.721-2.722-3.153-5.96-3.585-8.422-2.98-.605.129-1.382.604-1.857 1.08-1.295 1.252-1.166 3.844-1.08 4.75.087 1.037.13 1.124.173 1.21v.087h-.086l-.043-.044-3.757-1.857-.13-.605a9.909 9.909 0 0 0-.432-1.425c-1.338-3.542-4.361-6.22-7.73-6.825-2.245-.389-6.348-.432-8.55 3.672-.907 1.727-.864 3.93.13 5.83 1.036 1.945 2.85 3.154 4.965 3.413 2.116.216 3.757-.259 4.621-1.425a3.921 3.921 0 0 0 .432-4.104c-.691-1.382-1.727-2.16-3.196-2.246-1.123-.086-1.943.346-2.202.82-.086.13-.26.433-.26.822 0 1.036.95 1.339 1.167 1.339.043 0 .345 0 .734-.087l.173-.043.13-.043h.086c.69-.13 1.381.302 1.554.95.043.13.043.26.043.389 0 .432-.216.864-.604 1.123l-.043.043-.044.043c-.216.13-.388.216-.56.26-.562.172-1.037.259-1.512.259-1.685 0-3.973-1.426-4.017-4.104 0-1.512.735-2.894 2.073-3.801 1.555-1.037 4.232-1.382 6.694.173 3.066 1.857 3.843 5.529 3.066 7.99-1.166 3.63-4.405 5.53-8.68 5.141-3.023-.26-5.873-1.857-7.557-4.276-.735-1.08-1.296-2.246-1.598-3.456-.691-2.721 0-5.615.518-6.911 1.641-4.06 4.793-7.559 9.328-10.41l.302-.173C22.298.111 29.15.348 34.154.521l.053.001C40.124.738 46.43 2.77 47.292 3.071c0-.216.044-1.944.044-1.944l.043-.043h.086c.389.043 8.896 1.296 12.48 3.412.359.215.569.43.802.67l.148.151c.994 1.037 2.29 5.27 2.419 6.177l-.043.086c-.02 0-.06.03-.115.069-.06.044-.14.102-.23.147-.821.605-2.808 1.944-5.313 1.728-2.245-.216-5.182-1.469-8.723-3.844.132.295.588 1.366.856 1.994v.002l.18.423.044.043.05.025c.728.365 5.455 2.738 7.81 2.696 2.03-.086 4.145-1.037 4.966-1.555zm-2.354-4.355a3.448 3.448 0 0 1-1.097 1.979 4.492 4.492 0 0 1-.051.046c-.685.66-1.573.99-2.544.948-1.987-.087-3.585-1.771-3.498-3.758a3.71 3.71 0 0 1 1.166-2.549 3.443 3.443 0 0 1 2.573-.994h.022l.044.002c1.338.048 2.494.86 3.068 1.996.27.528.413 1.129.386 1.76a3.834 3.834 0 0 1-.069.57z" fill="#fff"/><path d="M57.055 5.663c1.425.044 2.548 1.253 2.505 2.679a2.46 2.46 0 0 1-.82 1.814c-.519.476-1.166.735-1.858.692-1.425-.043-2.547-1.253-2.504-2.679 0-.691.302-1.34.82-1.814.519-.476 1.166-.735 1.857-.692zm1.598 2.03c0-.431-.518-.777-1.166-.777-.648 0-1.166.346-1.166.778 0 .432.518.778 1.166.778.648 0 1.166-.346 1.166-.778zm-38.523 25.7c.346-.172.778-.345 1.34-.345h.172c.993 0 1.598.561 1.598 1.468v3.931a.433.433 0 0 1-.432.432h-.173a.433.433 0 0 1-.432-.432V34.69a.664.664 0 0 0-.648-.648H20.13a.664.664 0 0 0-.647.648v3.758a.433.433 0 0 1-.432.432h-.13a.433.433 0 0 1-.432-.432v-5.01c0-.216.13-.346.346-.346h.173c.172 0 .259.086.345.216l.13.216c.043.086.086.086.13.086.129-.043.302-.13.517-.216zm-2.808 1.037v1.166c0 .475-.303.777-.778.777h-2.98v.864c0 .432.26.648.692.648h1.64c.26 0 .432.173.432.389v.13c0 .215-.172.388-.431.388H13.91c-.734 0-1.382-.648-1.382-1.425v-2.98c0-.778.648-1.383 1.425-1.383h1.857c.864.086 1.512.691 1.512 1.425zm-1.037 1.08v-.908a.572.572 0 0 0-.561-.561h-1.555a.572.572 0 0 0-.561.561v.907h2.677zm-8.893 1.771c0 .26.13.475.345.562l-.259.518c-.043 0-.086.086-.086.173v2.548a.433.433 0 0 1-.432.432h-.13c-.259 0-.432-.173-.432-.432V33.48a.34.34 0 0 1 .346-.346h.173c.172 0 .302.13.302.173l.13.26c.043.042.086.086.129.086l.216.518c-.216.086-.346.302-.346.562v2.548h.044z" fill="#fff"/><path d="M9.508 33.048c.993 0 1.598.561 1.598 1.468v2.895c0 .907-.605 1.468-1.598 1.468h-.173c-.561 0-.993-.173-1.339-.346-.216-.086-.388-.172-.518-.172l.26-.519a.8.8 0 0 0 .301.087h1.426a.664.664 0 0 0 .647-.648v-2.635a.664.664 0 0 0-.647-.648H8.039a.624.624 0 0 0-.302.087l-.216-.519c.13 0 .303-.086.518-.173.346-.172.778-.345 1.34-.345h.129zM4.93 34.43v3.024c0 .778-.605 1.382-1.383 1.382H1.604a1.392 1.392 0 0 1-1.382-1.382v-3.023c0-.778.648-1.383 1.425-1.383h1.857c.778 0 1.425.648 1.425 1.383zm-.994 2.895v-2.722A.618.618 0 0 0 3.331 34H1.82a.618.618 0 0 0-.605.604v2.722c0 .345.26.604.562.604h1.511c.389 0 .648-.259.648-.604z" fill="#fff"/></svg>
